brandFactory_export/2.Regular/Regla medir medida_2Regular.svg

<?xml version="1.0" encoding="UTF-8"?>
<svg width="24px" height="24px" viewBox="0 0 24 24" version="1.1" xmlns="http://www.w3.org/2000/svg" xmlns:xlink="http://www.w3.org/1999/xlink">
    <title>2.Regular/Regla medir medida_2Regular</title>
    <g id="Symbols" stroke="none" stroke-width="1" fill="none" fill-rule="evenodd">
        <g id="2.Regular/Regla-medir-medida_2Regular" fill="#5CB615" fill-rule="nonzero">
            <path d="M22.0336134,18.2890756 C22.1411765,18.1815126 22.1411765,18.0033613 22.0336134,17.892437 L18.1344538,13.9932773 L16.5512605,15.5529412 C16.2521008,15.8453782 15.7747899,15.8386555 15.4823529,15.5428571 C15.189916,15.2470588 15.1966387,14.7663866 15.492437,14.4773109 L17.0689076,12.9277311 L15.6571429,11.5159664 L13.1764706,13.989916 C12.8840336,14.2857143 12.4067227,14.2857143 12.1142857,13.9932773 L12.1109244,13.989916 C11.8151261,13.6941176 11.8151261,13.2168067 12.1109244,12.9210084 L14.5882353,10.4436975 L13.1731092,9.03193277 L11.7848739,10.3966387 C11.4890756,10.6890756 11.0151261,10.6857143 10.7226891,10.3932773 L10.7193277,10.389916 C10.4268908,10.0941176 10.4302521,9.61680672 10.7294118,9.32436975 L12.107563,7.96638655 L10.6957983,6.55462185 L7.92941176,9.32436975 C7.63697479,9.62016807 7.16302521,9.62016807 6.86722689,9.32773109 L6.86386555,9.32436975 C6.56806723,9.02857143 6.56806723,8.5512605 6.86386555,8.25546218 L9.6302521,5.48571429 L8.21848739,4.07394958 L6.9210084,5.34453782 C6.62521008,5.63697479 6.14789916,5.63361345 5.85882353,5.33781513 L5.85546218,5.33445378 C5.56302521,5.03865546 5.56638655,4.55798319 5.86554622,4.26554622 L7.14621849,3.00504202 L5.72773109,1.58991597 C5.61680672,1.48235294 5.44201681,1.48235294 5.33445378,1.58991597 L1.58991597,5.33445378 C1.48235294,5.44201681 1.48235294,5.62016807 1.58991597,5.72773109 L17.8957983,22.0302521 C18.0033613,22.1378151 18.1848739,22.1378151 18.2890756,22.0302521 C18.2890756,22.0336134 22.0336134,18.2890756 22.0336134,18.2890756 Z M23.0991597,16.8268908 C23.794958,17.5260504 23.794958,18.6588235 23.0991597,19.3579832 L19.3579832,23.0991597 C19.0084034,23.4487395 18.5512605,23.6235294 18.0941176,23.6235294 C17.6369748,23.6235294 17.1798319,23.4487395 16.8268908,23.0991597 L0.524369748,6.79663866 C-0.171428571,6.09747899 -0.171428571,4.96470588 0.524369748,4.26554622 L4.26554622,0.524369748 C4.96470588,-0.174789916 6.09747899,-0.174789916 6.79663866,0.524369748 L23.0991597,16.8268908 Z M18.7327731,18.4436975 C18.8672269,18.2117647 18.789916,17.912605 18.5579832,17.7747899 C18.5579832,17.7747899 18.5546218,17.7747899 18.5546218,17.7714286 C18.3193277,17.6336134 18.0201681,17.7142857 17.8823529,17.9495798 C17.7445378,18.1848739 17.8252101,18.4840336 18.0605042,18.6218487 C18.1747899,18.6890756 18.312605,18.7058824 18.4403361,18.6722689 C18.5613445,18.6386555 18.6689076,18.5579832 18.7327731,18.4436975 L18.7327731,18.4436975 Z M19.0588235,16.9008403 C19.7747899,17.3109244 20.0201681,18.2184874 19.6134454,18.9344538 C19.610084,18.9378151 19.610084,18.9411765 19.6067227,18.9478992 C19.1966387,19.6638655 18.2823529,19.912605 17.5663866,19.4991597 C17.5630252,19.4991597 17.5630252,19.4957983 17.5596639,19.4957983 C16.8436975,19.0823529 16.5983193,18.1647059 17.0117647,17.4487395 C17.2134454,17.102521 17.5361345,16.8537815 17.9226891,16.7495798 C18.3092437,16.6487395 18.712605,16.6991597 19.0588235,16.9008403 L19.0588235,16.9008403 Z" id="Regla-medir-medida_2Regular"></path>
        </g>
    </g>
</svg>

<svg width="24" height="24" viewBox="0 0 24 24" xmlns="http://www.w3.org/2000/svg"><path d="M22.034 18.29a.284.284 0 000-.398l-3.9-3.899-1.583 1.56a.754.754 0 11-1.059-1.076l1.577-1.55-1.412-1.411-2.48 2.474a.75.75 0 01-1.063.003l-.003-.003a.755.755 0 010-1.069l2.477-2.477-1.415-1.412-1.388 1.365a.753.753 0 01-1.062-.004l-.004-.003a.75.75 0 01.01-1.066l1.379-1.358-1.412-1.411-2.767 2.77a.75.75 0 01-1.062.003l-.003-.004a.755.755 0 010-1.069l2.766-2.77-1.412-1.411-1.297 1.27a.75.75 0 01-1.062-.006l-.004-.004a.755.755 0 01.01-1.068l1.281-1.261L5.728 1.59a.28.28 0 00-.394 0L1.59 5.334a.28.28 0 000 .394L17.896 22.03a.28.28 0 00.393 0c0 .004 3.745-3.74 3.745-3.74zm1.065-1.463c.696.7.696 1.832 0 2.531l-3.741 3.741c-.35.35-.807.525-1.264.525-.457 0-.914-.175-1.267-.525L.524 6.797a1.795 1.795 0 010-2.531L4.266.524c.699-.699 1.831-.699 2.53 0L23.1 16.827zm-4.366 1.617a.492.492 0 00-.175-.67s-.003 0-.003-.003a.49.49 0 00-.673.179.49.49 0 00.179.672.484.484 0 00.672-.178zm.326-1.543c.716.41.961 1.317.554 2.033-.003.004-.003.007-.006.014a1.492 1.492 0 01-2.04.551c-.004 0-.004-.003-.007-.003a1.5 1.5 0 011.499-2.595z" fill="#5CB615" fill-rule="nonzero"/></svg>
